static/img/logo_shimmer.svg

<svg width="157" height="80" viewBox="0 0 157 80" fill="none" xmlns="http://www.w3.org/2000/svg">
<g clip-path="url(#clip0_1342_10250)">
<rect width="80" height="80" fill="#00E0CA"/>
<path d="M58.2774 21.6072C50.136 12.9628 36.756 12.7765 28.3924 21.1912C20.0289 29.606 19.8487 43.4351 27.9901 52.0795L33.3424 46.6947C28.092 41.086 28.2185 32.1397 33.6329 26.6922C39.0473 21.2446 47.7032 21.3547 52.9864 26.9306L58.2774 21.6072Z" fill="#00121F"/>
<path d="M22.7229 57.393C30.8642 66.0373 44.244 66.2235 52.6076 57.8088C60.9711 49.3941 61.1513 35.565 53.01 26.9206L47.6582 32.3051C52.9087 37.9139 52.7822 46.8601 47.3678 52.3077C41.9533 57.7552 33.2975 57.6451 28.0143 52.0693L22.7229 57.393Z" fill="#00121F"/>
<path d="M100.888 48H104.389L108.22 37.0073L112.027 48H115.505L120.393 32H116.633L113.648 42.7365L110.076 32H106.316L102.744 42.7365L99.7599 32H96L100.888 48Z" fill="white"/>
<path d="M125.122 48H128.6V32H125.122V48Z" fill="white"/>
<path d="M134.55 48H138.005V43.5284L140.026 41.3857L144.984 48H149.19L142.446 38.9403L148.744 32H144.537L138.005 39.3362V32H134.55V48Z" fill="white"/>
<path d="M153.522 48H157V32H153.522V48Z" fill="white"/>
</g>
<defs>
<clipPath id="clip0_1342_10250">
<rect width="157" height="80" fill="white"/>
</clipPath>
</defs>
</svg>

<svg viewBox="0 0 175 80" fill="none" xmlns="http://www.w3.org/2000/svg">
  <path fill="#00E0CA" d="M0 0h80v80H0z"/>
  <path d="M58.277 21.607c-8.141-8.644-21.521-8.83-29.885-.416-8.363 8.415-8.543 22.244-.402 30.889l5.352-5.385c-5.25-5.609-5.123-14.555.29-20.003 5.415-5.447 14.071-5.337 19.354.239l5.291-5.324ZM22.723 57.393c8.141 8.644 21.521 8.83 29.885.416 8.363-8.415 8.543-22.244.402-30.888l-5.352 5.384c5.25 5.609 5.124 14.555-.29 20.003-5.415 5.447-14.07 5.337-19.354-.239l-5.291 5.324ZM100.888 48h3.501l3.831-10.993L112.027 48h3.478l4.888-16h-3.76l-2.985 10.736L110.076 32h-3.76l-3.572 10.736L99.76 32H96l4.888 16Zm24.234 0h3.478V32h-3.478v16Zm9.428 0h3.455v-4.472l2.021-2.142L144.984 48h4.206l-6.744-9.06 6.298-6.94h-4.207l-6.532 7.336V32h-3.455v16Zm18.972 0H157V32h-3.478v16Z" fill="#00121F"/>
</svg>
